X:58
T:Ronde de Loudac
M:4/4
L:1/8
K:C
cg ge g2 a2|ba ge g2 a2|gg/g/ ge g2 a2|ba ge g2 a2||
g2 ef g2 ge|df ec dd c2|ce ef g2 ge|df ec dd c2||
